X: 22453
T: Lads Of Leith
R: jig
M: 6/8
K: Gminor
(B/c/)|ded Tc2B|ABG T^F2D|GAB cA^F|(G3 G2):|
|:(B/c/)|d2 b Ta2g|fdg f3|BcB fed|cdB TA2F|
BAB cBc|d2G T^F2|GAB cA^F|(G3 G2):|
|:(B/c/)|d(B/c/)d Tc2B|(A/B/c)G ^FAD|(G/A/B)G Ad^F|(G3 G2):|
|:B/c/|dBb fdb|Ta2g fdB|(A/B/c)A fed|cde TA2f|
(B/c/d)B (c/d/e)c|d2g T^f2g|edc Bd^F|(G3 G2):|
|:(B/c/)(dB/c/d/)B/ dBf|c(A/B/c/A/) cAF|BGd ^FDF|(G3 G2):|
|:(B/c/)|d(B/c/d/B/) fdb|fdg fdB|c(A/B/c/A/) F(A/B/c/A/)|fcA cAF|
B2G c2A2|dBG ^FAD|(G/A/B/c/)d ^FDF|(G3 G2):|
|:(B/c/)|(dB)B dbb|(cAA) caa|gdc BD^F|(G3 G2):|
|:(B/c/)|dfb Ta2g|{f}f2e {e}d2g|{g}f2e dcB|Ace T^F2D|
GBD AcD|BdD cec|dgB AD^F|(G3 G2):|

